X:145
T:RVW2/2/145 Good People All
C:J.W. Wright ("Mr. Smith" in MS), Coombe Bissett, Wiltshire,  2 Sep 1904
L:1/4
Q:1/4=120
M:4/4
I:linebreak $
K:D
"^(Editorial suggestion " D | F F F (E/D/) | A A B A | A (G/F/) D D | D3 D |$ A F A (B/c/) | 
w: Good|peo- ple all of _|each de- gree both|high and _ low draw|near and|lis- ten with at- *|
d c z A | B B B d | A z D2 |$ A F A (B/c/) | d c z A | B B B d | A3 D |$ F3/2 F/ F (E/D/) | 
w: ten- tion to|these few lines you'll|hear con-|cer- ning lis- ted _|sol- diers some|killed and woun- ded|sore far|from their na- tive *|
A B z B | A (G/F/) D D | D2 z |] 
w: count- ry in|that great _ in- dian|war.|



